X:1
T:You Must Be Redeemed
T:You Must Be Redeemed
T:Lewis Edgar Jones
T:Lewis Edgar Jones, 1903
T:Public Domain Courtesy of the Cyber Hymnal™
T:Public Domain Courtesy of the Cyber Hymnal™
C:Lewis Edgar Jones
Z:Public Domain
Z:Courtesy of the Cyber Hymnal™
%%score ( 1 2 ) ( 3 4 )
L:1/8
Q:1/4=105
M:4/4
K:Eb
V:1 treble 
V:2 treble 
V:3 bass 
V:4 bass 
V:1
 E[EF] | [EG]2 [EG]>[EF] [DF]EE[EG] | [EB]2 [Ec]2 [EB]3 E | [EG]2 [EG]>[DF] E2 [EG]>[EG] | %4
w: 1.~Is your|life full of tri- al, do you|seek sweet peace? You|must be re- deemed by the|
w: 2.~Would you|press on to glo- ry with a|Sav- ior near? You|must be re- deemed by the|
w: 3.~Do you|seek for His par- don lest your|soul shall die? You|must be re- deemed by the|
 [DF]6 [EG][FA] | [GB]2 [GB]>[GB] [Ac][GB][EG][GB] | [ce]2 [Ac]2 [GB]3 E | %7
w: blood. From the|chains that have bound you would you|find re- lease? You|
w: blood. Would your|soul rise in vic- t’ry o- ver|doubt and fear? You|
w: blood. For His|grace all suf- fi- cient doth your|spir- it cry? You|
 [EG]2 [GB]>[EG] [DF]2 [EG]>[DF] | E6 ||"^Refrain" [GB]2 | [GB]2 [EG]>[FA] [GB]3 [GB] | %11
w: must be re- deemed by the|blood.|You|must be re- deemed, you|
w: must be re- deemed by the|blood.|||
w: must be re- deemed by the|blood.|||
 [Ec]2 [EA]>[EB] [Ec]3 [Ec] | [EB]2 [EG]>[GB] [Ge]2 [GB]>[EG] | F6 [FA]2 | %14
w: must be re- deemed, You|must be re- deemed by the|blood; O|
w: |||
w: |||
 [EG]2 [EG]>[EA] [EB]3 [EB] | [Ec]2 [Ad]>[Ad] !fermata![Ge]3 E | [EG]2 [GB]>[EG] [DF]2 [EG]>[DF] | %17
w: trust and be- lieve, sal-|va- tion re- ceive, You|must be re- deemed by the|
w: |||
w: |||
 E6 |] %18
w: blood.|
w: |
w: |
V:2
 E x | x5 EE x | x7 E | x4 E2 x2 | x8 | x8 | x7 E | x8 | E6 || x2 | x8 | x8 | x8 | (D2 D>D D2) x2 | %14
 x8 | x7 E | x8 | E6 |] %18
V:3
 [E,G,][E,A,] | [E,B,]2 [E,B,]>[E,A,] [E,A,][E,G,][E,G,][E,B,] | [E,G,]2 [E,A,]2 [E,G,]3 [E,G,] | %3
w: ~ ~|~ ~ ~ ~ ~ ~ ~|~ ~ ~ ~|
 [E,B,]2 [E,B,]>[B,,A,] [E,G,]2 [E,B,]>[E,B,] | [B,,B,]6 [E,B,][E,B,] | %5
w: ~ ~ ~ ~ ~ ~|~ ~ ~|
 [E,B,]2 [E,B,]>[E,B,] [E,B,][E,B,][E,B,][E,E] | [A,,E]2 [A,,E]2 [E,E]3 [E,G,] | %7
w: ~ ~ ~ ~ ~ ~ ~|~ ~ ~ ~|
 [E,B,]2 [E,B,]>[E,B,] [B,,B,]2 [B,,B,]>[B,,A,] | [E,G,]6 || [E,B,]2 | %10
w: ~ ~ ~ ~ ~ ~|~|~|
 [E,E]2 [E,B,]>[E,B,] [E,E]3 [E,B,] | [A,,A,]2 [A,,C]>[A,,C] [A,,A,]3 A, | %12
w: ~ ~ ~ ~ ~|~ ~ ~ ~ ~|
 [E,G,]2 [E,B,]>[E,E] [E,B,]2 [E,B,]>[E,B,] | B,2 B,>B, B,2 [B,,B,]2 | %14
w: ~ ~ ~ ~ be re-|deemed by the blood *|
 [E,B,]2 [E,B,]>[F,B,] [G,B,]3 [G,B,] | A,2 [F,B,]>[F,B,] !fermata![E,B,]3 [E,G,] | %16
w: ||
 [E,B,]2 [E,B,]>[E,B,] [B,,B,]2 [B,,B,]>[B,,A,] | [E,G,]6 |] %18
w: ||
V:4
 x2 | x8 | x8 | x8 | x8 | x8 | x8 | x8 | x6 || x2 | x8 | x7 A, | x8 | B,,6 x2 | x8 | A,2 x6 | x8 | %17
 x6 |] %18

